packages/core/src/browser/icons/close-all-bright.svg

<svg height="16" viewBox="0 0 16 16" width="16" xmlns="http://www.w3.org/2000/svg"><g fill="none" stroke="#000"><path d="m11 11v-5h-8v8h8v-3h3v-8h-8v3" stroke-width="1.2"/><path d="m5 8 4 4m0-4-4 4" stroke-width="1.4"/></g></svg>

<!--Copyright (c) Microsoft Corporation. All rights reserved.-->
<!--Copyright (C) 2019 TypeFox and others.-->
<!--Licensed under the MIT License. See License.txt in the project root for license information.-->
<svg xmlns="http://www.w3.org/2000/svg" width="16" height="16" viewBox="0 0 16 16">
    <path fill="none" stroke="#000" stroke-width="1.2" d="M11,11 L11,6 L3,6 L3,14 L11,14 L11,11 L14,11 L14,3 L6,3 L6,6"/>
    <path fill="none" stroke="#000" stroke-width="1.4" d="M5,8 L9,12 M9,8 L5,12"/>
</svg>
